X:1163
T:Prince William Henry's Return.
T:Quick Step.
M:6/8
L:1/8
Q:3/8=88
I: :: ::
Z:Jack Campin * www.campin.me.uk * 2009
K:D
A   |d/e/fd B2d|AFA A2d|AFA Ade|f3  gfe   |d/e/fd B2d|AFA A2d|B2g fge|d3 d2:|
A   |dfg    a2f|b2g a2f|dfg a2f|g2e bge   |dfg    a2f|b2g a2f|fdA Ade|f3 f2
e/d/|B2B    B2d|A2A A2d|AFA Ade|f3  f2e/d/|B2B    B2d|AFA A2d|B2g fge|d3 d2|]
<end>
<start>
